cps 1

d1 $ stack $ [
  s "bd ~ [~ bd] ~" # up (-3) # gain 0.9
  , sometimesBy 0.1 rev $ s "hh hh [hh hh?] [hh hh? hh? hh?]" # gain "0.9 0.8 0.8 0.8"
  , s "maty(3,8)" # end (range 0.5 0.8 rand) # n (irand 100) # gain 1.0 # pan (range 0.3 0.7 rand) # hpf 600
  , sometimesBy 0.1 (fast 2) (s "bd*16") # up 20 |+| rarely (rev) (up (sine * 100 - 20 * rand))
      # pan (rand) # gain "0.8 0.9 0.7"
  , s "<bass*4 bass*8>" # end (range 0.1 0.5 rand) # up (-7) # gain 0.9
]

hush
